Newaita-dark/.DP/24/weather-clear-night.svg

<svg xmlns="http://www.w3.org/2000/svg" xmlns:xlink="http://www.w3.org/1999/xlink" width="24px" height="24px" viewBox="0 0 24 24" version="1.1">
<defs>
<radialGradient id="radial0" gradientUnits="userSpaceOnUse" cx="450.908997" cy="189.578995" fx="450.908997" fy="189.578995" r="21.167" gradientTransform="matrix(0,-0.058605,-0.10548,0,33.392999,47.697001)">
<stop offset="0" style="stop-color:rgb(0%,0%,0%);stop-opacity:0.314;"/>
<stop offset="0.222" style="stop-color:rgb(0%,0%,0%);stop-opacity:0.275;"/>
<stop offset="1" style="stop-color:rgb(0%,0%,0%);stop-opacity:0;"/>
</radialGradient>
<radialGradient id="radial1" gradientUnits="userSpaceOnUse" cx="450.908997" cy="189.578995" fx="450.908997" fy="189.578995" r="21.167" gradientTransform="matrix(0,0.058605,0.10548,0,-9.5775,-5.646)">
<stop offset="0" style="stop-color:rgb(0%,0%,0%);stop-opacity:0.314;"/>
<stop offset="0.222" style="stop-color:rgb(0%,0%,0%);stop-opacity:0.275;"/>
<stop offset="1" style="stop-color:rgb(0%,0%,0%);stop-opacity:0;"/>
</radialGradient>
<radialGradient id="radial2" gradientUnits="userSpaceOnUse" cx="450.908997" cy="189.578995" fx="450.908997" fy="189.578995" r="21.167" gradientTransform="matrix(0,-0.058605,0.10548,0,-9.5775,47.697001)">
<stop offset="0" style="stop-color:rgb(0%,0%,0%);stop-opacity:0.314;"/>
<stop offset="0.222" style="stop-color:rgb(0%,0%,0%);stop-opacity:0.275;"/>
<stop offset="1" style="stop-color:rgb(0%,0%,0%);stop-opacity:0;"/>
</radialGradient>
<radialGradient id="radial3" gradientUnits="userSpaceOnUse" cx="450.908997" cy="189.578995" fx="450.908997" fy="189.578995" r="21.167" gradientTransform="matrix(0,0.058605,-0.10548,0,33.392999,-5.646)">
<stop offset="0" style="stop-color:rgb(0%,0%,0%);stop-opacity:0.314;"/>
<stop offset="0.222" style="stop-color:rgb(0%,0%,0%);stop-opacity:0.275;"/>
<stop offset="1" style="stop-color:rgb(0%,0%,0%);stop-opacity:0;"/>
</radialGradient>
<linearGradient id="linear0" gradientUnits="userSpaceOnUse" x1="255.322998" y1="233.5" x2="255.322998" y2="254.667007" gradientTransform="matrix(0.01002,0,0,0.046875,9.3495,10.08)">
<stop offset="0" style="stop-color:rgb(0%,0%,0%);stop-opacity:0.275;"/>
<stop offset="1" style="stop-color:rgb(0%,0%,0%);stop-opacity:0;"/>
</linearGradient>
<linearGradient id="linear1" gradientUnits="userSpaceOnUse" x1="275.166992" y1="233.5" x2="275.166992" y2="-168.667007" >
<stop offset="0" style="stop-color:rgb(69.01961%,74.509805%,77.254903%);stop-opacity:1;"/>
<stop offset="1" style="stop-color:rgb(81.176472%,84.705883%,86.274511%);stop-opacity:1;"/>
</linearGradient>
</defs>
<g id="surface1">
<path style=" stroke:none;fill-rule:nonzero;fill:url(#radial0);" d="M 13.644531 21.023438 L 15.628906 21.023438 L 15.628906 20.035156 L 13.644531 20.035156 Z M 13.644531 21.023438 "/>
<path style=" stroke:none;fill-rule:nonzero;fill:url(#radial1);" d="M 10.171875 21.023438 L 8.183594 21.023438 L 8.183594 22.019531 L 10.171875 22.019531 Z M 10.171875 21.023438 "/>
<path style=" stroke:none;fill-rule:nonzero;fill:url(#radial2);" d="M 10.171875 21.023438 L 8.183594 21.023438 L 8.183594 20.035156 L 10.171875 20.035156 Z M 10.171875 21.023438 "/>
<path style=" stroke:none;fill-rule:nonzero;fill:url(#radial3);" d="M 13.644531 21.023438 L 15.628906 21.023438 L 15.628906 22.019531 L 13.644531 22.019531 Z M 13.644531 21.023438 "/>
<path style=" stroke:none;fill-rule:nonzero;fill:url(#linear0);" d="M 10.171875 20.777344 L 13.644531 20.777344 L 13.644531 22.019531 L 10.171875 22.019531 Z M 10.171875 20.777344 "/>
<path style="fill-rule:nonzero;fill:url(#linear1);stroke-width:3;stroke-linecap:round;stroke-linejoin:miter;stroke:rgb(20%,20%,20%);stroke-opacity:1;stroke-miterlimit:4;" d="M 254 -168.623327 C 365.166667 -168.623327 455.166667 -78.623327 455.166667 32.460007 C 455.166667 143.460007 365.166667 233.460007 254 233.460007 C 143 233.460007 52.833333 143.460007 52.833333 32.460007 C 52.833333 -78.623327 143 -168.623327 254 -168.623327 Z M 254 -168.623327 " transform="matrix(0.046875,0,0,0.046875,0,10.08)"/>
<path style=" stroke:none;fill-rule:nonzero;fill:rgb(0%,0%,0%);fill-opacity:0.196;" d="M 11.90625 21.023438 C 9.402344 21.027344 7.003906 20.039062 5.230469 18.269531 C 3.464844 16.503906 2.472656 14.105469 2.480469 11.601562 L 2.480469 11.507812 C 2.519531 16.683594 6.730469 20.855469 11.90625 20.839844 C 17.082031 20.855469 21.292969 16.683594 21.332031 11.507812 L 21.332031 11.601562 C 21.339844 14.105469 20.347656 16.503906 18.582031 18.269531 C 16.808594 20.039062 14.410156 21.027344 11.90625 21.023438 Z M 11.90625 21.023438 "/>
<path style=" stroke:none;fill-rule:nonzero;fill:rgb(100%,100%,100%);fill-opacity:0.392;" d="M 11.90625 2.175781 C 9.402344 2.167969 7.003906 3.160156 5.230469 4.925781 C 3.464844 6.699219 2.472656 9.097656 2.480469 11.601562 L 2.480469 11.691406 C 2.519531 6.515625 6.730469 2.34375 11.90625 2.355469 C 17.082031 2.34375 21.292969 6.515625 21.332031 11.691406 L 21.332031 11.601562 C 21.339844 9.097656 20.347656 6.699219 18.582031 4.925781 C 16.808594 3.160156 14.410156 2.167969 11.90625 2.175781 Z M 11.90625 2.175781 "/>
<path style=" stroke:none;fill-rule:nonzero;fill:rgb(12.941177%,12.941177%,12.941177%);fill-opacity:1;" d="M 11.90625 2.105469 C 9.386719 2.097656 6.964844 3.09375 5.183594 4.878906 C 3.398438 6.660156 2.402344 9.082031 2.410156 11.601562 C 2.402344 14.121094 3.402344 16.542969 5.183594 18.324219 C 6.964844 20.105469 9.386719 21.097656 11.90625 21.09375 C 14.425781 21.097656 16.847656 20.105469 18.628906 18.324219 C 20.410156 16.542969 21.410156 14.121094 21.402344 11.601562 C 21.410156 9.082031 20.414062 6.660156 18.628906 4.878906 C 16.847656 3.09375 14.425781 2.097656 11.90625 2.105469 Z M 11.90625 2.246094 C 14.390625 2.238281 16.777344 3.222656 18.527344 4.980469 C 20.285156 6.730469 21.269531 9.117188 21.261719 11.601562 C 21.269531 14.085938 20.285156 16.464844 18.527344 18.222656 C 16.769531 19.972656 14.390625 20.957031 11.90625 20.953125 C 9.421875 20.957031 7.042969 19.972656 5.285156 18.222656 C 3.527344 16.464844 2.542969 14.085938 2.550781 11.601562 C 2.542969 9.117188 3.527344 6.730469 5.285156 4.972656 C 7.042969 3.222656 9.421875 2.238281 11.90625 2.246094 Z M 11.90625 2.246094 "/>
</g>
</svg>

<svg xmlns="http://www.w3.org/2000/svg" width="32" height="32" viewBox="0 0 24 24"><defs><radialGradient id="a" gradientUnits="userSpaceOnUse" cx="450.909" cy="189.579" fx="450.909" fy="189.579" r="21.167" gradientTransform="matrix(0 -.0586 -.10548 0 33.392 47.696)"><stop offset="0" stop-opacity=".314"/><stop offset=".222" stop-opacity=".275"/><stop offset="1" stop-opacity="0"/></radialGradient><radialGradient id="b" gradientUnits="userSpaceOnUse" cx="450.909" cy="189.579" fx="450.909" fy="189.579" r="21.167" gradientTransform="matrix(0 .0586 .10548 0 -9.578 -5.646)"><stop offset="0" stop-opacity=".314"/><stop offset=".222" stop-opacity=".275"/><stop offset="1" stop-opacity="0"/></radialGradient><radialGradient id="c" gradientUnits="userSpaceOnUse" cx="450.909" cy="189.579" fx="450.909" fy="189.579" r="21.167" gradientTransform="matrix(0 -.0586 .10548 0 -9.578 47.696)"><stop offset="0" stop-opacity=".314"/><stop offset=".222" stop-opacity=".275"/><stop offset="1" stop-opacity="0"/></radialGradient><radialGradient id="d" gradientUnits="userSpaceOnUse" cx="450.909" cy="189.579" fx="450.909" fy="189.579" r="21.167" gradientTransform="matrix(0 .0586 -.10548 0 33.392 -5.646)"><stop offset="0" stop-opacity=".314"/><stop offset=".222" stop-opacity=".275"/><stop offset="1" stop-opacity="0"/></radialGradient><linearGradient id="e" gradientUnits="userSpaceOnUse" x1="255.323" y1="233.5" x2="255.323" y2="254.667" gradientTransform="matrix(.01002 0 0 .04688 9.349 10.08)"><stop offset="0" stop-opacity=".275"/><stop offset="1" stop-opacity="0"/></linearGradient><linearGradient id="f" gradientUnits="userSpaceOnUse" x1="275.167" y1="233.5" x2="275.167" y2="-168.667"><stop offset="0" stop-color="#b0bec5"/><stop offset="1" stop-color="#cfd8dc"/></linearGradient></defs><path d="M13.645 21.027h1.984v-.996h-1.984zm0 0" fill="url(#a)"/><path d="M10.172 21.027H8.187v.993h1.985zm0 0" fill="url(#b)"/><path d="M10.172 21.027H8.187v-.996h1.985zm0 0" fill="url(#c)"/><path d="M13.645 21.027h1.984v.993h-1.984zm0 0" fill="url(#d)"/><path d="M10.172 20.777h3.473v1.243h-3.473zm0 0" fill="url(#e)"/><path d="M253.976-168.671c111.072 0 201.147 89.991 201.147 201.064s-90.075 201.148-201.147 201.148c-110.99 0-201.064-90.075-201.064-201.148s90.074-201.064 201.064-201.064zm0 0" transform="matrix(.04688 0 0 .04688 0 10.08)" fill="url(#f)" stroke-width="3" stroke-linecap="round" stroke="#333"/><path d="M11.906 21.027a9.408 9.408 0 0 1-9.426-9.43v-.09a9.404 9.404 0 0 0 9.426 9.333 9.402 9.402 0 0 0 9.426-9.332c0 .031.004.058.004.09a9.41 9.41 0 0 1-9.43 9.43zm0 0" fill-opacity=".196"/><path d="M11.906 2.172a9.404 9.404 0 0 0-9.426 9.52 9.408 9.408 0 0 1 9.426-9.337 9.405 9.405 0 0 1 9.426 9.336c0-.03.004-.062.004-.093a9.408 9.408 0 0 0-9.43-9.426zm0 0" fill="#fff" fill-opacity=".392"/><path d="M11.906 2.102a9.48 9.48 0 0 0-9.496 9.496 9.48 9.48 0 0 0 9.496 9.5 9.48 9.48 0 0 0 9.5-9.5 9.48 9.48 0 0 0-9.5-9.496zm0 .14a9.335 9.335 0 0 1 9.36 9.356 9.336 9.336 0 0 1-9.36 9.359 9.335 9.335 0 0 1-9.355-9.36 9.334 9.334 0 0 1 9.355-9.355zm0 0" fill="#212121"/></svg>
